!! 00000] TT[WS
!!!OTL: Fan tewu
!!!ARE: Asia, China, Shanxi Zuoquan
!! Ethnic Group: Han
!! WII, 220
!!!SCT: J0728
!!!YEM: Copyright 1995, estate of Helmut Schaffrath.
**kern
*ICvox
*Ivox
*M2/4
*k[f#c#g#]
*A:
{8r
8b
=1
4b
8ee
8dd
=2
8cc#
4b
8ee
=3
4b
[4a
=4
8.a]}
{16a
8g#
8f#
=5
4b
8cc#
8b
=6
8a
8g#
8f#
8c#
=7
2e}
=8
{8b
8a
8g#
8f#
=9
8e
8f#
4a
=10
8b
8a
8g#
8f#
=11
8a
8g#
8f#
8c#
=12
2e}
=13
{8b
8a
8g#
8f#
=14
8e
8f#
4a
=15
8b
8a
8g#
8f#
=16
8e
8f#
4a}
=17
{8b
8b
8r
8cc#
=18
8a
8b
8cc#
8ee
=19
8cc#
8f#
8a
8g#
=20
8f#
8c#
[4e
=21
4e]}
==
!!!AGN: Xiaodiao. XÅshi, Xinminge
!!!ONB: ESAC (Essen Associative Code) Database: CHINA
!!!AMT: simple duple
!!!AIN: vox
!!!EED: Helmut Schaffrath
!!!EEV: 1.0
*-
!!!ONB: Tied note syntax fixed by Craig Sapp, 2004/05/03/
